X:1
T: Road to California
I: Road to California	R-133	D	reel
R: reel
M: C|
K: D
A,2| "D"D2DE FEFE| DFAB AF- FA| "G"dcBA GFED| "A"CDE2 E2FE|
"D"D2DE FEFE| DFAB AF- FA| "G"dcBA GFED|1 "A"CDE2 "D"D2 :|2 "A"CDE2 "D"D4 |]
|:"G"D2B2 B4| BABc dcBA| "D"F2A2 ABAG| FEFG ABAF|
"G"D2B2 B4| BABc dcBA| "D"F2D2 DEFD|1 "A"EDC2 "D"D4 :|2 "A"EDC2 "D"D2 |]
%%text Roaring Jelly  R-133

